P3
8 8
255
12 16 34  16 22 46  20 28 58  24 34 70  24 34 70  20 28 58  16 22 46  12 16 34
16 22 46  20 28 58  24 34 70  30 42 84  30 42 84  24 34 70  20 28 58  16 22 46
20 28 58  24 34 70  32 44 88  44 58 106 44 58 106 32 44 88  24 34 70  20 28 58
24 34 70  30 42 84  44 58 106 64 82 130 64 82 130 44 58 106 30 42 84  24 34 70
24 34 70  30 42 84  44 58 106 64 82 130 64 82 130 44 58 106 30 42 84  24 34 70
20 28 58  24 34 70  32 44 88  44 58 106 44 58 106 32 44 88  24 34 70  20 28 58
16 22 46  20 28 58  24 34 70  30 42 84  30 42 84  24 34 70  20 28 58  16 22 46
12 16 34  16 22 46  20 28 58  24 34 70  24 34 70  20 28 58  16 22 46  12 16 34
